!!!!SEGMENT: pl-cz--iii-573--008_rygall-ignacy--rorate-caeli-llaskils-pellna-palnskiej.krn
!!!cenid: 18xx:1038
!!!COM: Rygall, Ignacy
!!!COM-rismID: pe30110281
!!!CDT: <1750->1799
!!!CNT:
!!!OPR: Rorate caeli
!!!OTL: Łaskiś pełna Pańskiej
!!!OMV: 008
!!!PDT:
!!!AGN: Sacred
!!!SMS-siglum: PL-CZ
!!!SMS-shelfmark: III-573
!!!SMS-shelfwork: 001-008 M
!!!SMS-variant:
!!!SMS-altvar:
!!!NIFC-rismSourceID: 300001133
!!!NIFC-rismChildID: 300001133
!!!NIFC-islandoraID: pl-cz:39252
!!!URL-pdf-islandora: https://repozytorium.nifc.pl/islandora/object/pl-cz%3A39252/datastream/PDF/view
!!!URL-scan: https://polish.musicsources.pl/pl/lokalizacje/galeria/rekopisy/6955/1 @EN{Scan on Polish Music Sources Website} @PL{Skany w portalu Dziedzictwo Muzyki Polskiej w otwartym dostępie}
!!!IIIF:
!!!ONB-nifc: UWAGA: części Rorate caeli: Intonatio, Benedixisti Domine, Mittit ad virginem,
!!!OMD:
!!!OMD-mod:
!!!AIN: 1 alto 1 bass 2 cor 2 oboe 1 organ 1 soprn 1 tenor 1 timpa 2 viola 3 violn
!!!key: G
**kern	**kern	**kern	**kern	**kern	**kern	**kern	**kern	**text	**kern	**text	**mod-text	**kern	**text	**mod-text	**kern	**kern	**kern	**kern	**kern
*part15	*part14	*part13	*part12	*part11	*part10	*part9	*part8	*part8	*part7	*part7	*part7	*part6	*part6	*part6	*part5	*part4	*part3	*part2	*part1
*group6	*group5	*group5	*group5	*group5	*group5	*group4	*group4	*group4	*group4	*group4	*group4	*group4	*group4	*group4	*group3	*group2	*group2	*group1	*group1
*staff15	*staff14	*staff13	*staff12	*staff11	*staff10	*staff9	*staff8	*staff8	*staff7	*staff7	*staff7	*staff6	*staff6	*staff6	*staff5	*staff4	*staff3	*staff2	*staff1
*I"Organo	*I"Viola 2da.	*I"Alto Viola Prima.	*I"Violino Groſso	*I"Violino Secondo.	*I"Violino Primo.	*I"Baſso	*I"Tenore	*	*I"Alto.	*	*	*I"Sopran	*	*	*I"Tympano in D: A.	*I"Corno IIdo in G.	*I"Corno 1mo in G.	*I"Oboe IIdo	*I"Oboe 1mo
*	*mI"Viola II	*mI"Viola I	*mI"Violino grosso	*mI"Violino II	*mI"Violino I	*mI"Basso	*	*	*mI"Alto	*	*	*mI"Soprano	*	*	*mI"Timpani in D, A	*mI"Corno II in G	*mI"Corno I in G	*mI"Oboe II	*mI"Oboe I
*I'org	*I'vla II	*I'vla I	*I'vl	*I'vl II	*I'vl I	*I'B	*I'T	*	*I'A	*	*	*I'S	*	*	*I'timp in D, A	*I'cor II in G	*I'cor I in G	*I'ob II	*I'ob I
*Iorgan	*Iviola	*Iviola	*Ivioln	*Ivioln	*Ivioln	*Ibass	*Ialto	*	*Itenor	*	*	*Isoprn	*	*	*Itimpa	*Icor	*Icor	*Ioboe	*Ioboe
*clefF4	*clefC3	*clefC3	*clefC3	*clefG2	*clefG2	*clefF4	*clefC4	*	*clefC3	*	*	*clefC1	*	*	*clefF4	*clefG2	*clefG2	*clefG2	*clefG2
*	*	*	*	*	*	*	*mclefGv2	*	*mclefG2	*	*	*mclefG2	*	*	*	*	*	*	*
*	*	*	*	*	*	*	*	*	*	*	*	*	*	*	*	*ITrd3c5	*ITrd3c5	*	*
*k[f#]	*k[f#]	*k[f#]	*k[f#]	*k[f#]	*k[f#]	*k[f#]	*k[f#]	*	*k[f#]	*	*	*k[f#]	*	*	*k[]	*k[f#]	*k[f#]	*k[f#]	*k[f#]
*G:	*G:	*G:	*G:	*G:	*G:	*G:	*G:	*	*G:	*	*	*G:	*	*	*G:	*G:	*G:	*G:	*G:
*M3/4	*M3/4	*M3/4	*M3/4	*M3/4	*M3/4	*M3/4	*M3/4	*	*M3/4	*	*	*M3/4	*	*	*M3/4	*M3/4	*M3/4	*M3/4	*M3/4
=1	=1	=1	=1	=1	=1	=1	=1	=1	=1	=1	=1	=1	=1	=1	=1	=1	=1	=1	=1
!	!LO:MO:mod=!null:null	!LO:MO:mod=!null:null	!	!	!	!	!	!	!LO:MO:mod=!null:null	!	!	!LO:MO:mod=!null:null	!	!	!	!LO:MO:mod=!null:null	!LO:MO:mod=!null:null	!	!
*	*2\right	*2\right	*	*	*	*	*	*	*2\right	*	*	*2\right	*	*	*	*2\right	*2\right	*	*
!	!	!	!	!	!	!	!	!	!	!	!	!	!	!	!	!	!	!LO:MO:mod=!null:null	!LO:MO:mod=!null:null
!	!	!	!LO:TX:a:t=[Tacet]	!LO:TX:a:t=Zdrovas \nTace:mod=Tacet	!LO:TX:a:t=Zdrovas \nTace:mod=Tacet	!LO:TX:a:t=Zdrovas\nTace:mod=Tacet	!LO:TX:a:t=Zdrovas\nTace:mod=Tacet	!	!	!	!	!	!	!	!LO:TX:t=Mittit ad Virginem Tacet:mod=Tacet	!	!	!LO:N:vis=00	!LO:N:vis=00
4G\	2b\	2dd\	2.ryy	2.ryy	2.ryy	2.ryy	2.ryy	.	2b\	Las-	Ła-	2dd\	Las-	Ła-	2.ryy	2b\	2dd\	0.r	0.r
4B\	.	.	.	.	.	.	.	.	.	.	.	.	.	.	.	.	.	.	.
4G\	4g\	4b\	.	.	.	.	.	.	4g\	-kis	-skiś	4b\	-kis	-skiś	.	4g\	4b\	.	.
=2	=2	=2	=2	=2	=2	=2	=2	=2	=2	=2	=2	=2	=2	=2	=2	=2	=2	=2	=2
4F#\	2d\	2a\	2.ryy	2.ryy	2.ryy	2.ryy	2.ryy	.	4.f#\	pel-	peł-	4.a\	pel-	peł-	2.ryy	2d/	2a\	.	.
4D\	.	.	.	.	.	.	.	.	.	.	.	.	.	.	.	.	.	.	.
.	.	.	.	.	.	.	.	.	8a\	.	.	8cc\	.	.	.	.	.	.	.
!	!	!	!	!	!	!	!	!	!LO:LB:g=original	!	!	!	!	!	!	!	!	!	!
4G\	4g\	4b\	.	.	.	.	.	.	8g\L	na	na	8b\L	na	na	.	4g\	4b\	.	.
.	.	.	.	.	.	.	.	.	8cc\J	.	.	8ee\J	.	.	.	.	.	.	.
=3	=3	=3	=3	=3	=3	=3	=3	=3	=3	=3	=3	=3	=3	=3	=3	=3	=3	=3	=3
4A\	4b\	4dd\	2.ryy	2.ryy	2.ryy	2.ryy	2.ryy	.	2b\	Pans-	Pań-	2dd\	Pans-	Pań-	2.ryy	4b\	4dd\	.	.
4F#\	4a\	4cc\	.	.	.	.	.	.	.	.	.	.	.	.	.	4a\	4cc\	.	.
4D\	4d\	4a\	.	.	.	.	.	.	4a\	.	.	4cc\	.	.	.	4d\	4a\	.	.
=4	=4	=4	=4	=4	=4	=4	=4	=4	=4	=4	=4	=4	=4	=4	=4	=4	=4	=4	=4
4G\	4g\	4b\	2.ryy	2.ryy	2.ryy	2.ryy	2.ryy	.	2g\	-ky	-skiej,	2b\	-kiey	-skiej,	2.ryy	4g\	4b\	.	.
!LO:SIC:v:s=4G\	!	!	!	!	!	!	!	!	!	!	!	!	!	!	!	!	!	!	!
4A\	8g\L	8b\L	.	.	.	.	.	.	.	.	.	.	.	.	.	8g\L	8b\L	.	.
.	8g\J	8b\J	.	.	.	.	.	.	.	.	.	.	.	.	.	8g\J	8b\J	.	.
4G\	4g\	4b\	.	.	.	.	.	.	4r	.	.	4r	.	.	.	4g\	4b\	.	.
=5	=5	=5	=5	=5	=5	=5	=5	=5	=5	=5	=5	=5	=5	=5	=5	=5	=5	=5	=5
!	!	!	!	!	!	!	!	!	!	!	!	!	!	!	!	!	!	!LO:MO:mod=!null:null	!LO:MO:mod=!null:null
*	*	*	*	*	*	*	*	*	*	*	*	*	*	*	*	*	*	*2\right	*2\right
!	!LO:TX:a:t=4:mod=	!	!	!	!	!	!	!	!	!	!	!	!	!	!	!LO:TX:a:t=4:mod=	!LO:TX:a:t=4:mod=	!	!
!	!LO:MO:mod=!null:null	!LO:MO:mod=!null:null	!	!	!	!	!	!	!	!	!	!	!	!	!	!LO:MO:mod=!null:null	!LO:MO:mod=!null:null	!	!
!	!LO:N:vis=00	!LO:N:vis=00	!	!	!	!	!	!	!	!	!	!	!	!	!	!LO:N:vis=00	!LO:N:vis=00	!	!
4G\	0.r	0.r	2.ryy	2.ryy	2.ryy	2.ryy	2.ryy	.	2g\	czys-	czys-	2b\	czys-	czys-	2.ryy	0.r	0.r	2gg\	2bb\
4G\	.	.	.	.	.	.	.	.	.	.	.	.	.	.	.	.	.	.	.
4E\	.	.	.	.	.	.	.	.	4e\	-tos-	-toś-	4cc#X\	-tos-	-toś-	.	.	.	4ee\	4gg\
=6	=6	=6	=6	=6	=6	=6	=6	=6	=6	=6	=6	=6	=6	=6	=6	=6	=6	=6	=6
4F#\	.	.	2.ryy	2.ryy	2.ryy	2.ryy	2.ryy	.	2f#\	-cy	-ci	2dd\	-ci	-ci	2.ryy	.	.	2dd\	2ff#\
4D\	.	.	.	.	.	.	.	.	.	.	.	.	.	.	.	.	.	.	.
4F#\	.	.	.	.	.	.	.	.	4r	.	.	4r	.	.	.	.	.	4ff#\	4aa\
=7	=7	=7	=7	=7	=7	=7	=7	=7	=7	=7	=7	=7	=7	=7	=7	=7	=7	=7	=7
4G\	.	.	2.ryy	2.ryy	2.ryy	2.ryy	2.ryy	.	4g\	A-	a-	4ee\	A-	a-	2.ryy	.	.	8b/L	8gg\L
.	.	.	.	.	.	.	.	.	.	.	.	.	.	.	.	.	.	8g/J	8ee\J
4A\	.	.	.	.	.	.	.	.	4f#\	-niels-	-niel-	4dd\	-nyels-	-niel-	.	.	.	4f#/	4dd\
4AA/	.	.	.	.	.	.	.	.	4e\	.	.	4cc#X\	.	.	.	.	.	4g/	4cc#X\
=8	=8	=8	=8	=8	=8	=8	=8	=8	=8	=8	=8	=8	=8	=8	=8	=8	=8	=8	=8
4D\	.	.	2.ryy	2.ryy	2.ryy	2.ryy	2.ryy	.	2f#\	-ky	-skiej,	2dd\	-ky	-skiej,	2.ryy	.	.	2f#/	2dd\
4DD/	.	.	.	.	.	.	.	.	.	.	.	.	.	.	.	.	.	.	.
4D\	.	.	.	.	.	.	.	.	4r	.	.	4r	.	.	.	.	.	4r	4r
!	!	!	!	!	!	!	!	!	!LO:PB:g=original	!	!	!LO:LB:g=original	!	!	!	!	!	!	!
=9	=9	=9	=9	=9	=9	=9	=9	=9	=9	=9	=9	=9	=9	=9	=9	=9	=9	=9	=9
!	!	!	!	!	!	!	!	!	!	!	!	!	!	!	!	!	!	!LO:MO:mod=!null:null	!LO:MO:mod=!null:null
!	!	!	!	!	!	!	!	!	!	!	!	!	!	!	!	!	!	!LO:N:vis=00	!LO:N:vis=00
4B\	4b\	2dd\	2.ryy	2.ryy	2.ryy	2.ryy	2.ryy	.	2b\	Pan-	Pan-	4dd\	Pan-	Pan-	2.ryy	4b\	2dd\	0.r	0.r
4G\	4g\	.	.	.	.	.	.	.	.	.	.	4gg\	.	.	.	4g\	.	.	.
4B\	4b\	4dd\	.	.	.	.	.	.	4b\	-nas	-naś	4ffn\	-na	-naś	.	4b\	4dd\	.	.
=10	=10	=10	=10	=10	=10	=10	=10	=10	=10	=10	=10	=10	=10	=10	=10	=10	=10	=10	=10
4c\	4cc\	2ee\	2.ryy	2.ryy	2.ryy	2.ryy	2.ryy	.	2cc\	nad	nad	2ee\	nad	nad	2.ryy	4cc\	2ee\	.	.
4C/	4g\	.	.	.	.	.	.	.	.	.	.	.	.	.	.	4g\	.	.	.
4B\	4b\	4dd\	.	.	.	.	.	.	4b\	Pan-	pan-	4dd\	Pan-	pan-	.	4b\	4dd\	.	.
!LO:PB:g=original	!	!	!	!	!	!	!	!	!	!	!	!	!	!	!	!	!	!	!
!LO:MO:mod==11	!LO:MO:mod==11	!	!	!	!	!	!	!	!	!	!	!	!	!	!	!	!	!	!
=11-	=11-	=11	=11	=11	=11	=11	=11	=11	=11	=11	=11	=11	=11	=11	=11	=11	=11	=11	=11
4A\	4b\	4dd\	2.ryy	2.ryy	2.ryy	2.ryy	2.ryy	.	4b\	-na-	-na-	4dd\	-na-	-na-	2.ryy	4b\	4dd\	.	.
4F#\	4a\	4cc\	.	.	.	.	.	.	4a\	.	.	4cc\	.	.	.	4a\	4cc\	.	.
4G\	4g\	4b\	.	.	.	.	.	.	4g\	.	.	4b\	.	.	.	4g\	4b\	.	.
=12	=12	=12	=12	=12	=12	=12	=12	=12	=12	=12	=12	=12	=12	=12	=12	=12	=12	=12	=12
4D\	4d\	4a\	2.ryy	2.ryy	2.ryy	2.ryy	2.ryy	.	2f#\	-mi	-mi,	2a\	-mi	-mi,	2.ryy	4d/	4a\	.	.
4AA\	4d\	4a\	.	.	.	.	.	.	.	.	.	.	.	.	.	4d/	4a\	.	.
4DD/	4d\	4a\	.	.	.	.	.	.	4r	.	.	4r	.	.	.	4d/	4a\	.	.
=13	=13	=13	=13	=13	=13	=13	=13	=13	=13	=13	=13	=13	=13	=13	=13	=13	=13	=13	=13
!	!	!	!	!	!	!	!	!	!	!	!	!	!	!	!	!	!	!LO:MO:mod=!null:null	!LO:MO:mod=!null:null
!	!	!	!	!	!	!	!	!	!	!	!	!	!	!	!	!	!	!LO:N:vis=00	!LO:N:vis=00
4F#\	2d\	2a\	2.ryy	2.ryy	2.ryy	2.ryy	2.ryy	.	2f#\	Swię-	świę-	2a\	swię-	świę-	2.ryy	2d/	2a\	0.r	0.r
4D\	.	.	.	.	.	.	.	.	.	.	.	.	.	.	.	.	.	.	.
4G\	4g\	4b\	.	.	.	.	.	.	4g\	-ta	-ta	4b\	.	-ta	.	4g\	4b\	.	.
!	!LO:LB:g=original	!	!	!	!	!	!	!	!	!	!	!	!	!	!	!	!	!	!
=14	=14	=14	=14	=14	=14	=14	=14	=14	=14	=14	=14	=14	=14	=14	=14	=14	=14	=14	=14
4A\	4a\	2cc\	2.ryy	2.ryy	2.ryy	2.ryy	2.ryy	.	2a\	nad	nad	2cc\	.	nad	2.ryy	4a\	2cc\	.	.
4D\	4d\	.	.	.	.	.	.	.	.	.	.	.	.	.	.	4d\	.	.	.
4G\	4g\	4b\	.	.	.	.	.	.	4g\	Swię-	świę-	4b\	-tas	świę-	.	4g\	4b\	.	.
!	!	!	!	!	!	!	!	!	!LO:LB:g=original	!	!	!	!	!	!	!LO:LB:g=original	!	!	!
=15	=15	=15	=15	=15	=15	=15	=15	=15	=15	=15	=15	=15	=15	=15	=15	=15	=15	=15	=15
4c\	8cc\L	8ee\L	2.ryy	2.ryy	2.ryy	2.ryy	2.ryy	.	8cc\L	-te-	-ty-	8eeL	nad	-ty-	2.ryy	8cc\L	8ee\L	.	.
.	8b\J	8dd\J	.	.	.	.	.	.	8b\J	.	.	8dd\J	.	.	.	8b\J	8dd\J	.	.
4A\	4a\	4cc\	.	.	.	.	.	.	4a\	.	.	4cc\	Swię-	.	.	4a\	4cc\	.	.
4c#X\	4g\	4b\	.	.	.	.	.	.	4g\	.	.	4b\	-te-	.	.	4g\	4b\	.	.
!	!	!LO:LB:g=original	!	!	!	!	!	!	!	!	!	!	!	!	!	!	!	!	!
=16	=16	=16	=16	=16	=16	=16	=16	=16	=16	=16	=16	=16	=16	=16	=16	=16	=16	=16	=16
4d\	4d\	4a\	2.ryy	2.ryy	2.ryy	2.ryy	2.ryy	.	2f#\	-mi	-mi;	2a\	-mi	-mi;	2.ryy	4d/	4a\	.	.
4A\	8d\L	8a\L	.	.	.	.	.	.	.	.	.	.	.	.	.	8d/L	8a\L	.	.
.	8d\J	8a\J	.	.	.	.	.	.	.	.	.	.	.	.	.	8d/J	8a\J	.	.
4D\	4d\	4a\	.	.	.	.	.	.	4r	.	.	4r	.	.	.	4d/	4a\	.	.
=17	=17	=17	=17	=17	=17	=17	=17	=17	=17	=17	=17	=17	=17	=17	=17	=17	=17	=17	=17
!	!	!	!	!	!	!	!	!	!	!	!	!	!	!	!	!LO:TX:a:t=2:mod=	!LO:TX:a:t=2:mod=	!	!
!	!LO:MO:mod=!null:null	!LO:MO:mod=!null:null	!	!	!	!	!	!	!	!	!	!	!	!	!	!LO:MO:mod=!null:null	!LO:MO:mod=!null:null	!	!
!	!LO:N:vis=0	!LO:N:vis=0	!	!	!	!	!	!	!	!	!	!	!	!	!	!LO:N:vis=0	!LO:N:vis=0	!LO:SIC:v:s=2a\	!
4F#\	1.r	1.r	2.ryy	2.ryy	2.ryy	2.ryy	2.ryy	.	2a\	o	O	2cc\	o	O	2.ryy	1.r	1.r	2g\	2cc\
4F#\	.	.	.	.	.	.	.	.	.	.	.	.	.	.	.	.	.	.	.
4G\	.	.	.	.	.	.	.	.	4g\	Nay-	Naj-	4b\	Nay-	Naj-	.	.	.	4g\	4b\
=18	=18	=18	=18	=18	=18	=18	=18	=18	=18	=18	=18	=18	=18	=18	=18	=18	=18	=18	=18
4c\	.	.	2.ryy	2.ryy	2.ryy	2.ryy	2.ryy	.	2cc\	-swięt-	-święt-	2ee\	-swięt-	-święt-	2.ryy	.	.	2cc\	2ee\
4c\	.	.	.	.	.	.	.	.	.	.	.	.	.	.	.	.	.	.	.
4B\	.	.	.	.	.	.	.	.	4b\	-za	-sza	4dd\	-sza	-sza	.	.	.	4b\	4dd\
!	!	!	!	!	!	!	!	!	!	!	!	!LO:PB:g=original	!	!	!	!	!	!	!
=19	=19	=19	=19	=19	=19	=19	=19	=19	=19	=19	=19	=19	=19	=19	=19	=19	=19	=19	=19
4c\	4a\	4cc\	2.ryy	2.ryy	2.ryy	2.ryy	2.ryy	.	8b\L	Ma-	Ma-	4cc\	Ma-	Ma-	2.ryy	4a\	4cc\	4cc\	4aa\
.	.	.	.	.	.	.	.	.	8a\J	.	.	.	.	.	.	.	.	.	.
4d\	4g\	4b\	.	.	.	.	.	.	4g\	.	.	4b\	-ri-	.	.	4g\	4b\	4b\	4gg\
4C\	4d\	4a\	.	.	.	.	.	.	4d\	-ri-	-ry-	4a\	.	-ry-	.	4d\	4a\	4a\	4ff#\
!LO:LB:g=original	!	!	!	!	!	!	!	!	!	!	!	!	!	!	!	!	!LO:LB:g=original	!LO:LB:g=original	!LO:LB:g=original
=20	=20	=20	=20	=20	=20	=20	=20	=20	=20	=20	=20	=20	=20	=20	=20	=20	=20	=20	=20
4G\	4B/	4g\	2.ryy	2.ryy	2.ryy	2.ryy	2.ryy	.	2B/	-a	-ja,	2g\	-a	-ja,	2.ryy	4B/	4g\	8g|/L	8g|/L
.	.	.	.	.	.	.	.	.	.	.	.	.	.	.	.	.	.	16f#|/L	16a|/L
.	.	.	.	.	.	.	.	.	.	.	.	.	.	.	.	.	.	16g|/JJ	16b|/JJ
4r	4r	4r	.	.	.	.	.	.	.	.	.	.	.	.	.	4r	4r	16a|/LL	16cc|\LL
.	.	.	.	.	.	.	.	.	.	.	.	.	.	.	.	.	.	16b|/	16dd|\
.	.	.	.	.	.	.	.	.	.	.	.	.	.	.	.	.	.	16cc|/	16ee|\
.	.	.	.	.	.	.	.	.	.	.	.	.	.	.	.	.	.	16a|/JJ	16ff#|\JJ
4r	4r	4r	.	.	.	.	.	.	4r	.	.	4r	.	.	.	4r	4r	4b|/	4gg|\
=21	=21	=21	=21	=21	=21	=21	=21	=21	=21	=21	=21	=21	=21	=21	=21	=21	=21	=21	=21
4C\	4a\	4cc\	2.ryy	2.ryy	2.ryy	2.ryy	2.ryy	.	4a\	Modl	módl	4cc\	modl	módl	2.ryy	4a\	4cc\	4cc\	4aa\
4D\	4g\	4b\	.	.	.	.	.	.	4g\	.	.	4b\	.	.	.	4g\	4b\	4b\	4gg\
4DD/	4d\	4a\	.	.	.	.	.	.	4f#\	sie	się	4a\	się	się	.	4d\	4a\	4a\	4ff#\
!	!	!	!	!	!	!	!	!	!LO:LB:g=original	!	!	!	!	!	!	!	!	!	!
=22	=22	=22	=22	=22	=22	=22	=22	=22	=22	=22	=22	=22	=22	=22	=22	=22	=22	=22	=22
4GG/	4B/	4g\	2.ryy	2.ryy	2.ryy	2.ryy	2.ryy	.	4g\	dzis	dziś	2g\	dzis	dziś	2.ryy	4B/	4g\	8g|\L	8b|\L
.	.	.	.	.	.	.	.	.	.	.	.	.	.	.	.	.	.	16a|\L	16cc|\L
.	.	.	.	.	.	.	.	.	.	.	.	.	.	.	.	.	.	16b|\JJ	16dd|\JJ
4r	4r	4r	.	.	.	.	.	.	4r	.	.	.	.	.	.	4r	4r	16cc|\LL	16ee|\LL
.	.	.	.	.	.	.	.	.	.	.	.	.	.	.	.	.	.	16dd|\	16ff#|\
.	.	.	.	.	.	.	.	.	.	.	.	.	.	.	.	.	.	16ee|\	16gg|\
.	.	.	.	.	.	.	.	.	.	.	.	.	.	.	.	.	.	16ff#|\JJ	16aa|\JJ
4r	4r	4r	.	.	.	.	.	.	4r	.	.	4r	.	.	.	4r	4r	4gg|\	4bb\
=23	=23	=23	=23	=23	=23	=23	=23	=23	=23	=23	=23	=23	=23	=23	=23	=23	=23	=23	=23
4C/	4a\	4cc\	2.ryy	2.ryy	2.ryy	2.ryy	2.ryy	.	8cc\L	za	za	8ee\L	za	za	2.ryy	4a\	4cc\	4cc\	4aa\
.	.	.	.	.	.	.	.	.	8a\J	.	.	8cc\J	.	.	.	.	.	.	.
4D/	4g\	4b\	.	.	.	.	.	.	4g\	.	na-	4b\	Na-	na-	.	4g\	4b\	4b\	4gg\
4DD/	4d\	4a\	.	.	.	.	.	.	4f#\	na-	.	4a\	.	.	.	4d\	4a\	4a\	4ff#\
=24	=24	=24	=24	=24	=24	=24	=24	=24	=24	=24	=24	=24	=24	=24	=24	=24	=24	=24	=24
!	!	!	!	!	!	!	!	!	!	!	!	!	!	!	!	!	!	!	!LO:MO:mod=!null:null
!	!	!	!	!	!	!	!	!	!	!	!	!	!	!	!	!	!	!	!LO:N:vis=2.
2GG/	4B/	4g\	2.ryy	2.ryy	2.ryy	2.ryy	2.ryy	.	2g\	-mi	-mi.	2g\	-mi	-mi.	2.ryy	4b\	4g\	2b\	2gg\
.	4r	4r	.	.	.	.	.	.	.	.	.	.	.	.	.	4r	4r	.	.
4r	4r	4r	.	.	.	.	.	.	4r	.	.	4r	.	.	.	4r	4r	4r	4r
!	!	!	!	!	!LO:MO:mod==25	!LO:MO:mod==25	!	!	!	!	!	!	!	!	!	!LO:MO:mod==25	!LO:MO:mod==25	!	!
=25	=25	=25	=25	=25	=25||	=25||	=25	=25	=25	=25	=25	=25	=25	=25	=25	=25||	=25||	=25	=25
*	*	*	*	*2\right	*2\right	*2\right	*	*	*	*	*	*	*	*	*	*	*	*	*
2.C/	2.G/	2.g\	2.ryy	2.cc\	2.ee\	2.c\	2.G/	A-	2.g\	a-	A-	2.ee\	A-	A-	2.ryy	2G/	2g\	2.ee\	2.ccc\
.	.	.	.	.	.	.	.	.	.	.	.	.	.	.	.	4r	4r	.	.
!	!	!	!	!	!	!	!	!	!	!	!	!	!	!	!	!LO:MO:mod==26	!LO:MO:mod==26	!	!
=26	=26	=26	=26	=26	=26	=26	=26	=26	=26	=26	=26	=26	=26	=26	=26	=26||	=26||	=26	=26
2GG/	2G/	2g\	2.ryy	2b\	2dd\	2G\	2G/	-men.	2g\	-men.	-men.	2dd\	-men.	-men.	2.ryy	2G/	2g\	2dd\	2bb\
4r	4r	4r	.	4r	4r	4r	4r	.	4r	.	.	4r	.	.	.	4r	4r	4r	4r
!	!	!	!	!	!	!	!	!	!	!	!	!	!	!	!	!LO:TX:b:t=P. S. 1881.:mod=	!LO:TX:b:t=DP&colon;Szuberski 1881.:mod=	!	!
==	==	==	==	==	==	==	==	==	==	==	==	==	==	==	==	==	==	==	==
*-	*-	*-	*-	*-	*-	*-	*-	*-	*-	*-	*-	*-	*-	*-	*-	*-	*-	*-	*-
!!!system-decoration: [(g1)][(g2)][(g3)][(g4)][(g5)]g6
!!!RDF**kern: | = vertical stroke
!!!RDF**kern: > = above
!!!RDF**kern: < = below
!!!filter-modern: sic -sq | modori -m | autostem -r | tie -s
!!!ENC: Marcin Jachim
!!!END: 2020-10-05
!!!ENC: Leszek Kubiak
!!!END: 2021-11-19
!!!ENC-modern: Katarzyna Serwa
!!!END-modern: 2022-06-22
!!!YEC: Copyright 2022 Narodowy Instytut Fryderyka Chopina (https://polishscores.org)
!!!YEM: License CC-BY-4.0 (https://creativecommons.org/licenses/by/4.0)
